X: 1034
T: Brudpolska efter Lars Törnlund
O: Skog, Hälsingland
R: Polska
Z: LP
M: 3/4
L: 1/16
S: efter Per Larsson
S: efter Lars Törnlund
B: Svenska Låtar Hälsingland
N: Uppteckning av Johnny Schönning i Svenska låtar - Hälsingland, skiljer sig något
Q: 1/4=90
K: Gm
G2>A2 (A2<B2) G4|g2(ag) (g^f)af d4|g2>a2 (a2<b2) (!tenuto!a2!tenuto!g2)|
g2(ag) (g^faf) d4|{/d}(cd)(cA) (BA)(Bc) d2B2|1 {AB}A2(G^F) G2DB, G,4 :|
|2 {AB}A2G^F G6 D|: G2>A2 B2A2 B2d2|c2(dc) (3(B2A2)G2 ^F2D2 |
G2>A2 B2A2 B2d2|c2(dc) (3(B2A2)G2 ^F2A2-|A2d2 B2G2 ^F2A2-|
A2d2 B2G2 ^F4|{ga}g2^fg d2g2 f2g2|{ab}a2g^f g8|
d2(ed) c2(dc) B2G2|1 {AB}A2G^F G6 D :|2 {AB}A2G^F G8|

(:musicend:)
(:music:)
